X: 14239
T: Furnill's Frolic
R: slip jig
M: 9/8
K: Dmixolydian
AdA GAG F2 G|~A3 AFD EFG|AdA GAG FAd|~c3 AGE GE[cC]|
AdA GAG F2 G|Ac/.B/A {B}AFD EFG|AdA GAG FAd|~c3 AGE GE[cC]||
|:F{G}FD .E/.F/GE DFG|~A3 AFD EFG|.F/.G/AD .E/.F/GE DFd|~c3 AGE GE[cC]:|
|:f2 d cAG F2 G|~A3 AFD EFA|~f2A Bge fAB|cec AGE GE[cC]:|

